;Generated with Cura_SteamEngine 15.01
; Default start code
G28 ; Home extruder
G1 Z15 F100
M107 ; Turn off fan
G90 ; Absolute positioning
M82 ; Extruder in absolute mode
; Activate all used extruder
M104 T0 S220
G92 E0 ; Reset extruder position
; Wait for all used extruders to reach temperature
M109 T0 S220
;Layer count: 22
;LAYER:0
M107
G0 F9000 X40.456 Y2.154 Z0.300
;TYPE:SKIRT
G1 F1800 X41.196 Y-0.592 E0.14189
G1 X42.736 Y-2.121 E0.25015
G1 X43.517 Y-2.898 E0.30512
G1 X46.238 Y-3.621 E0.44558
G1 X106.062 Y-3.621 E3.43021
G1 X108.420 Y-3.013 E3.55170
G1 X109.317 Y-2.407 E3.60571
G1 X110.934 Y-0.797 E3.71955
G1 X111.357 Y0.311 E3.77872
G1 X111.856 Y2.152 E3.87388
G1 X111.856 Y116.985 E9.60292
G1 X111.163 Y119.668 E9.74117
G1 X108.818 Y122.044 E9.90772
G1 X106.701 Y122.615 E10.01711
G1 X106.050 Y122.778 E10.05059
G1 X46.249 Y122.778 E13.03408
G1 X44.631 Y122.360 E13.11745
G1 X43.584 Y122.088 E13.17142
G1 X41.227 Y119.809 E13.33499
G1 X40.639 Y117.674 E13.44547
G1 X40.456 Y117.012 E13.47973
G1 X40.456 Y2.154 E19.21002
G1 F2400 E15.21002
G0 F9000 X44.256 Y2.656
;TYPE:WALL-INNER
G1 F2400 E19.21002
G1 F1800 X44.599 Y1.385 E19.27570
G1 X45.476 Y0.514 E19.33737
G1 X46.735 Y0.179 E19.40237
G1 X105.580 Y0.179 E22.33815
G1 X106.836 Y0.503 E22.40287
G1 X106.892 Y0.541 E22.40624
G1 X107.673 Y1.319 E22.46124
G1 X107.740 Y1.494 E22.47059
G1 X108.056 Y2.658 E22.53077
G1 X108.056 Y116.502 E28.21047
G1 X107.739 Y117.728 E28.27364
G1 X106.836 Y118.643 E28.33778
G1 X105.750 Y118.936 E28.39390
G1 X105.582 Y118.978 E28.40254
G1 X46.733 Y118.978 E31.33853
G1 X45.506 Y118.661 E31.40175
G1 X44.614 Y117.798 E31.46367
G1 X44.256 Y116.499 E31.53089
G1 X44.256 Y2.656 E37.21054
G0 F9000 X79.374 Y53.032
G1 F1800 X79.124 Y53.199 E37.22554
G1 X78.858 Y53.522 E37.24642
G1 X78.555 Y53.715 E37.26434
G1 X78.313 Y53.997 E37.28288
G1 X77.964 Y54.214 E37.30339
G1 X77.261 Y55.023 E37.35686
G1 X77.079 Y55.290 E37.37298
G1 X76.722 Y55.960 E37.41085
G1 X76.588 Y56.223 E37.42558
G1 X76.518 Y56.622 E37.44579
G1 X76.352 Y56.930 E37.46324
G1 X76.283 Y57.271 E37.48060
G1 X76.083 Y57.616 E37.50050
G1 X75.856 Y58.632 E37.55244
G1 X75.822 Y58.967 E37.56923
G1 X75.833 Y59.717 E37.60666
G1 X75.840 Y60.017 E37.62163
G1 X75.975 Y60.416 E37.64264
G1 X75.977 Y60.750 E37.65931
G1 X76.077 Y61.081 E37.67656
G1 X76.069 Y61.490 E37.69697
G1 X76.362 Y62.504 E37.74962
G1 X76.496 Y62.817 E37.76661
G1 X76.867 Y63.470 E37.80408
G1 X77.020 Y63.732 E37.81922
G1 X77.330 Y64.016 E37.84019
G1 X77.492 Y64.307 E37.85681
G1 X77.737 Y64.544 E37.87381
G1 X77.926 Y64.908 E37.89428
G1 X78.670 Y65.649 E37.94666
G1 X78.941 Y65.861 E37.96383
G1 X79.585 Y66.260 E38.00162
G1 X79.843 Y66.413 E38.01659
G1 X80.247 Y66.513 E38.03735
G1 X80.533 Y66.691 E38.05416
G1 X80.859 Y66.781 E38.07103
G1 X81.199 Y67.009 E38.09146
G1 X82.201 Y67.298 E38.14348
G1 X82.530 Y67.354 E38.16013
G1 X83.284 Y67.390 E38.19779
G1 X83.576 Y67.402 E38.21237
G1 X83.966 Y67.299 E38.23250
G1 X84.317 Y67.322 E38.25005
G1 X84.660 Y67.241 E38.26763
G1 X85.062 Y67.276 E38.28776
G1 X86.090 Y67.045 E38.34033
G1 X86.410 Y66.934 E38.35723
G1 X87.096 Y66.609 E38.39510
G1 X87.373 Y66.472 E38.41052
G1 X87.687 Y66.171 E38.43222
G1 X87.984 Y66.030 E38.44862
G1 X88.244 Y65.794 E38.46614
G1 X88.626 Y65.621 E38.48706
G1 X89.412 Y64.882 E38.54088
G1 X89.624 Y64.644 E38.55678
G1 X89.827 Y64.228 E38.57988
G1 X90.055 Y63.982 E38.59661
G1 X90.249 Y63.596 E38.61816
G1 X90.289 Y63.551 E38.62117
G1 X90.912 Y63.578 E38.65228
G1 X91.163 Y63.577 E38.66480
G1 X91.964 Y63.583 E38.70476
G1 X92.218 Y63.582 E38.71744
G1 X93.000 Y63.584 E38.75645
G1 X94.041 Y63.577 E38.80839
G1 X95.093 Y63.555 E38.86088
G1 X95.309 Y63.554 E38.87166
G1 X96.234 Y63.464 E38.91803
G1 X97.023 Y63.534 E38.95754
G1 X97.810 Y63.486 E38.99688
G1 X98.076 Y63.471 E39.01017
G1 X98.626 Y63.593 E39.03828
G1 X99.041 Y63.543 E39.05913
G1 X99.784 Y63.284 E39.09839
G1 X99.919 Y63.270 E39.10516
G1 X100.000 Y63.220 E39.10991
G1 X100.728 Y63.025 E39.14751
G1 X101.084 Y62.777 E39.16916
G1 X101.612 Y62.279 E39.20537
G1 X101.893 Y61.954 E39.22680
G1 X101.991 Y61.566 E39.24677
G1 X102.183 Y61.324 E39.26218
G1 X102.488 Y60.498 E39.30611
G1 X102.495 Y60.132 E39.32437
G1 X102.641 Y59.823 E39.34142
G1 X102.639 Y59.378 E39.36362
G1 X102.434 Y58.648 E39.40145
G1 X102.417 Y57.886 E39.43948
G1 X102.043 Y57.186 E39.47907
G1 X101.462 Y56.879 E39.51185
G1 X101.376 Y56.778 E39.51847
G1 X100.763 Y56.224 E39.55969
G1 X99.989 Y55.881 E39.60193
G1 X99.446 Y55.807 E39.62927
G1 X99.090 Y55.620 E39.64933
G1 X98.586 Y55.558 E39.67467
G1 X98.294 Y55.665 E39.69018
G1 X97.990 Y55.627 E39.70547
G1 X97.247 Y55.686 E39.74265
G1 X97.235 Y55.683 E39.74327
G1 X97.062 Y55.693 E39.75192
G1 X96.361 Y55.598 E39.78721
G1 X95.323 Y55.576 E39.83901
G1 X95.075 Y55.577 E39.85138
G1 X94.301 Y55.569 E39.89000
G1 X94.044 Y55.570 E39.90282
G1 X93.279 Y55.563 E39.94099
G1 X93.022 Y55.564 E39.95381
G1 X92.267 Y55.543 E39.99149
G1 X91.982 Y55.544 E40.00571
G1 X91.274 Y55.473 E40.04121
G1 X90.767 Y55.474 E40.06650
G1 X90.341 Y55.541 E40.08802
G1 X89.901 Y54.866 E40.12822
G1 X89.543 Y54.577 E40.15117
G1 X89.340 Y54.289 E40.16875
G1 X89.107 Y54.101 E40.18368
G1 X88.846 Y53.705 E40.20735
G1 X88.006 Y53.026 E40.26123
G1 X87.692 Y52.828 E40.27975
G1 X86.986 Y52.493 E40.31874
G1 X86.692 Y52.359 E40.33486
G1 X86.248 Y52.299 E40.35721
G1 X85.946 Y52.156 E40.37388
G1 X85.630 Y52.109 E40.38982
G1 X85.232 Y51.905 E40.41213
G1 X84.185 Y51.735 E40.46505
G1 X83.845 Y51.720 E40.48203
G1 X83.088 Y51.772 E40.51989
G1 X82.778 Y51.797 E40.53540
G1 X82.376 Y51.957 E40.55699
G1 X82.049 Y51.978 E40.57334
G1 X81.745 Y52.090 E40.58950
G1 X81.314 Y52.107 E40.61102
G1 X80.324 Y52.459 E40.66344
G1 X80.016 Y52.611 E40.68058
G1 X79.374 Y53.032 E40.71888
G0 F9000 X79.126 Y53.824
;TYPE:WALL-OUTER
G1 F1800 X78.820 Y54.020 E40.73701
G1 X78.577 Y54.305 E40.75569
G1 X78.226 Y54.522 E40.77628
G1 X77.578 Y55.267 E40.82554
G1 X77.422 Y55.497 E40.83941
G1 X77.077 Y56.145 E40.87603
G1 X76.971 Y56.352 E40.88764
G1 X76.900 Y56.755 E40.90805
G1 X76.732 Y57.067 E40.92573
G1 X76.661 Y57.416 E40.94350
G1 X76.460 Y57.763 E40.96350
G1 X76.251 Y58.696 E41.01121
G1 X76.222 Y58.984 E41.02565
G1 X76.233 Y59.709 E41.06182
G1 X76.239 Y59.946 E41.07365
G1 X76.374 Y60.349 E41.09485
G1 X76.376 Y60.689 E41.11182
G1 X76.478 Y61.025 E41.12933
G1 X76.470 Y61.437 E41.14989
G1 X76.739 Y62.369 E41.19829
G1 X76.855 Y62.639 E41.21295
G1 X77.213 Y63.270 E41.24914
G1 X77.335 Y63.477 E41.26113
G1 X77.647 Y63.763 E41.28225
G1 X77.813 Y64.061 E41.29927
G1 X78.063 Y64.303 E41.31662
G1 X78.252 Y64.668 E41.33713
G1 X78.936 Y65.349 E41.38529
G1 X79.170 Y65.533 E41.40014
G1 X79.792 Y65.918 E41.43663
G1 X79.996 Y66.039 E41.44847
G1 X80.403 Y66.139 E41.46937
G1 X80.695 Y66.321 E41.48654
G1 X81.028 Y66.413 E41.50378
G1 X81.370 Y66.642 E41.52431
G1 X82.290 Y66.907 E41.57208
G1 X82.573 Y66.955 E41.58640
G1 X83.302 Y66.991 E41.62281
G1 X83.532 Y67.000 E41.63429
G1 X83.926 Y66.896 E41.65462
G1 X84.283 Y66.919 E41.67247
G1 X84.633 Y66.836 E41.69042
G1 X85.035 Y66.872 E41.71055
G1 X85.981 Y66.660 E41.75892
G1 X86.259 Y66.563 E41.77361
G1 X86.921 Y66.249 E41.81016
G1 X87.140 Y66.141 E41.82235
G1 X87.455 Y65.838 E41.84415
G1 X87.759 Y65.694 E41.86093
G1 X88.023 Y65.454 E41.87873
G1 X88.401 Y65.284 E41.89941
G1 X89.125 Y64.603 E41.94900
G1 X89.289 Y64.419 E41.96130
G1 X89.492 Y64.000 E41.98453
G1 X89.723 Y63.751 E42.00147
G1 X89.916 Y63.368 E42.02287
G1 X90.114 Y63.144 E42.03778
G1 X90.919 Y63.178 E42.07798
G1 X91.165 Y63.177 E42.09025
G1 X91.965 Y63.183 E42.13017
G1 X92.218 Y63.182 E42.14279
G1 X92.999 Y63.184 E42.18175
G1 X94.036 Y63.177 E42.23349
G1 X95.084 Y63.155 E42.28579
G1 X95.288 Y63.154 E42.29597
G1 X96.204 Y63.065 E42.34188
G1 X96.224 Y63.062 E42.34289
G1 X97.028 Y63.133 E42.38316
G1 X98.112 Y63.069 E42.43733
G1 X98.646 Y63.188 E42.46463
G1 X98.950 Y63.151 E42.47991
G1 X99.693 Y62.893 E42.51914
G1 X99.788 Y62.882 E42.52392
G1 X99.844 Y62.848 E42.52718
G1 X100.557 Y62.657 E42.56401
G1 X100.831 Y62.466 E42.58067
G1 X101.323 Y62.002 E42.61441
G1 X101.528 Y61.764 E42.63009
G1 X101.623 Y61.387 E42.64948
G1 X101.830 Y61.126 E42.66610
G1 X102.089 Y60.423 E42.70348
G1 X102.097 Y60.038 E42.72269
G1 X102.240 Y59.734 E42.73945
G1 X102.239 Y59.434 E42.75442
G1 X102.035 Y58.707 E42.79209
G1 X102.019 Y57.991 E42.82782
G1 X101.748 Y57.483 E42.85654
G1 X101.207 Y57.197 E42.88707
G1 X101.088 Y57.057 E42.89624
G1 X100.542 Y56.564 E42.93294
G1 X99.879 Y56.270 E42.96913
G1 X99.325 Y56.195 E42.99702
G1 X98.969 Y56.008 E43.01708
G1 X98.633 Y55.967 E43.03397
G1 X98.339 Y56.074 E43.04958
G1 X97.981 Y56.029 E43.06758
G1 X97.211 Y56.090 E43.10611
G1 X97.194 Y56.086 E43.10698
G1 X97.041 Y56.094 E43.11463
G1 X96.330 Y55.997 E43.15043
G1 X95.320 Y55.976 E43.20083
G1 X95.072 Y55.977 E43.21320
G1 X94.300 Y55.969 E43.25172
G1 X94.041 Y55.970 E43.26464
G1 X93.278 Y55.963 E43.30271
G1 X93.012 Y55.964 E43.31598
G1 X92.262 Y55.943 E43.35341
G1 X91.963 Y55.944 E43.36833
G1 X91.255 Y55.873 E43.40383
G1 X90.799 Y55.874 E43.42658
G1 X90.140 Y55.977 E43.45986
G1 X89.757 Y55.353 E43.49638
G1 X89.607 Y55.143 E43.50926
G1 X89.248 Y54.852 E43.53231
G1 X89.045 Y54.565 E43.54985
G1 X88.808 Y54.374 E43.56504
G1 X88.546 Y53.977 E43.58877
G1 X87.773 Y53.352 E43.63836
G1 X87.499 Y53.179 E43.65453
G1 X86.817 Y52.856 E43.69218
G1 X86.580 Y52.748 E43.70517
G1 X86.135 Y52.688 E43.72757
G1 X85.828 Y52.543 E43.74451
G1 X85.505 Y52.494 E43.76081
G1 X85.106 Y52.290 E43.78317
G1 X84.144 Y52.134 E43.83179
G1 X83.850 Y52.121 E43.84647
G1 X83.118 Y52.171 E43.88308
G1 X82.871 Y52.191 E43.89544
G1 X82.465 Y52.352 E43.91723
G1 X82.132 Y52.373 E43.93388
G1 X81.823 Y52.487 E43.95031
G1 X81.391 Y52.504 E43.97188
G1 X80.481 Y52.828 E44.02007
G1 X80.215 Y52.959 E44.03486
G1 X79.595 Y53.365 E44.07184
G1 X79.395 Y53.499 E44.08385
G1 X79.126 Y53.824 E44.10489
G0 F9000 X78.919 Y53.604
G0 X108.156 Y2.641
G0 X108.456 Y2.604
G1 F1800 X108.456 Y116.551 E49.78973
G1 X108.099 Y117.933 E49.86094
G1 X107.046 Y119.001 E49.93577
G1 X105.847 Y119.324 E49.99772
G1 X105.631 Y119.378 E50.00883
G1 X46.683 Y119.378 E52.94976
G1 X45.304 Y119.021 E53.02082
G1 X44.258 Y118.010 E53.09340
G1 X43.856 Y116.550 E53.16895
G1 X43.856 Y2.604 E58.85374
G1 X44.241 Y1.176 E58.92753
G1 X45.270 Y0.154 E58.99988
G1 X46.681 Y-0.221 E59.07272
G1 X105.629 Y-0.221 E62.01365
G1 X107.003 Y0.133 E62.08444
G1 X107.147 Y0.231 E62.09313
G1 X108.018 Y1.098 E62.15444
G1 X108.120 Y1.366 E62.16874
G1 X108.456 Y2.604 E62.23274
G0 F9000 X107.915 Y2.981
;TYPE:SKIN
G1 F1800 X105.253 Y0.318 E62.42060
G0 F9000 X104.687 Y0.318
G1 F1800 X107.915 Y3.546 E62.64835
G0 F9000 X107.915 Y4.112
G1 F1800 X104.122 Y0.318 E62.91600
G0 F9000 X103.556 Y0.318
G1 F1800 X107.915 Y4.678 E63.22359
G0 F9000 X107.915 Y5.243
G1 F1800 X102.990 Y0.318 E63.57107
G0 F9000 X102.425 Y0.318
G1 F1800 X107.915 Y5.809 E63.95846
G0 F9000 X107.915 Y6.375
G1 F1800 X101.859 Y0.318 E64.38578
G0 F9000 X101.293 Y0.318
G1 F1800 X107.915 Y6.940 E64.85299
G0 F9000 X107.915 Y7.506
G1 F1800 X100.728 Y0.318 E65.36011
G0 F9000 X100.162 Y0.318
G1 F1800 X107.915 Y8.072 E65.90716
G0 F9000 X107.915 Y8.638
G1 F1800 X99.596 Y0.318 E66.49415
G0 F9000 X99.031 Y0.318
G1 F1800 X107.915 Y9.203 E67.12100
G0 F9000 X107.915 Y9.769
G1 F1800 X98.465 Y0.318 E67.78778
G0 F9000 X97.899 Y0.318
G1 F1800 X107.915 Y10.335 E68.49450
G0 F9000 X107.915 Y10.900
G1 F1800 X97.333 Y0.318 E69.24112
G0 F9000 X96.768 Y0.318
G1 F1800 X107.915 Y11.466 E70.02763
G0 F9000 X107.915 Y12.032
G1 F1800 X96.202 Y0.318 E70.85408
G0 F9000 X95.636 Y0.318
G1 F1800 X107.915 Y12.597 E71.72043
G0 F9000 X107.915 Y13.163
G1 F1800 X95.071 Y0.318 E72.62668
G0 F9000 X94.505 Y0.318
G1 F1800 X107.915 Y13.729 E73.57287
G0 F9000 X107.915 Y14.294
G1 F1800 X93.939 Y0.318 E74.55895
G0 F9000 X93.374 Y0.318
G1 F1800 X107.915 Y14.860 E75.58493
G0 F9000 X107.915 Y15.426
G1 F1800 X92.808 Y0.318 E76.65085
G0 F9000 X92.242 Y0.318
G1 F1800 X107.915 Y15.991 E77.75666
G0 F9000 X107.915 Y16.557
G1 F1800 X91.677 Y0.318 E78.90237
G0 F9000 X91.111 Y0.318
G1 F1800 X107.915 Y17.123 E80.08802
G0 F9000 X107.915 Y17.688
G1 F1800 X90.545 Y0.318 E81.31357
G0 F9000 X89.980 Y0.318
G1 F1800 X107.915 Y18.254 E82.57902
G0 F9000 X107.915 Y18.820
G1 F1800 X89.414 Y0.318 E83.88440
G0 F9000 X88.848 Y0.318
G1 F1800 X107.915 Y19.386 E85.22971
G0 F9000 X107.915 Y19.951
G1 F1800 X88.282 Y0.318 E86.61493
G0 F9000 X87.717 Y0.318
G1 F1800 X107.915 Y20.517 E88.04004
G0 F9000 X107.915 Y21.083
G1 F1800 X87.151 Y0.318 E89.50509
G0 F9000 X86.585 Y0.318
G1 F1800 X107.915 Y21.648 E91.01003
G0 F9000 X107.915 Y22.214
G1 F1800 X86.020 Y0.318 E92.55488
G0 F9000 X85.454 Y0.318
G1 F1800 X107.915 Y22.780 E94.13966
G0 F9000 X107.915 Y23.345
G1 F1800 X84.888 Y0.318 E95.76434
G0 F9000 X84.323 Y0.318
G1 F1800 X107.915 Y23.911 E97.42892
G0 F9000 X107.915 Y24.477
G1 F1800 X83.757 Y0.318 E99.13343
G0 F9000 X83.191 Y0.318
G1 F1800 X107.915 Y25.042 E100.87784
G0 F9000 X107.915 Y25.608
G1 F1800 X82.626 Y0.318 E102.66215
G0 F9000 X82.060 Y0.318
G1 F1800 X107.915 Y26.174 E104.48640
G0 F9000 X107.915 Y26.739
G1 F1800 X81.494 Y0.318 E106.35054
G0 F9000 X80.929 Y0.318
G1 F1800 X107.915 Y27.305 E108.25458
G0 F9000 X107.915 Y27.871
G1 F1800 X80.363 Y0.318 E110.19856
G0 F9000 X79.797 Y0.318
G1 F1800 X107.915 Y28.437 E112.18247
G0 F9000 X107.915 Y29.002
G1 F1800 X79.232 Y0.318 E114.20625
G0 F9000 X78.666 Y0.318
G1 F1800 X107.915 Y29.568 E116.26996
G0 F9000 X107.915 Y30.134
G1 F1800 X78.100 Y0.318 E118.37361
G0 F9000 X77.534 Y0.318
G1 F1800 X107.915 Y30.699 E120.51715
G0 F9000 X107.915 Y31.265
G1 F1800 X76.969 Y0.318 E122.70059
G0 F9000 X76.403 Y0.318
G1 F1800 X107.915 Y31.831 E124.92397
G0 F9000 X107.915 Y32.396
G1 F1800 X75.837 Y0.318 E127.18724
G0 F9000 X75.272 Y0.318
G1 F1800 X107.915 Y32.962 E129.49042
G0 F9000 X107.915 Y33.528
G1 F1800 X74.706 Y0.318 E131.83353
G0 F9000 X74.140 Y0.318
G1 F1800 X107.915 Y34.093 E134.21654
G0 F9000 X107.915 Y34.659
G1 F1800 X73.575 Y0.318 E136.63945
G0 F9000 X73.009 Y0.318
G1 F1800 X107.915 Y35.225 E139.10229
G0 F9000 X107.915 Y35.790
G1 F1800 X72.443 Y0.318 E141.60503
G0 F9000 X71.878 Y0.318
G1 F1800 X107.915 Y36.356 E144.14767
G0 F9000 X107.915 Y36.922
G1 F1800 X71.312 Y0.318 E146.73024
G0 F9000 X70.746 Y0.318
G1 F1800 X107.915 Y37.487 E149.35272
G0 F9000 X107.915 Y38.053
G1 F1800 X70.181 Y0.318 E152.01509
G0 F9000 X69.615 Y0.318
G1 F1800 X107.915 Y38.619 E154.71740
G0 F9000 X107.915 Y39.185
G1 F1800 X69.049 Y0.318 E157.45964
G0 F9000 X68.483 Y0.318
G1 F1800 X107.915 Y39.750 E160.24178
G0 F9000 X107.915 Y40.316
G1 F1800 X67.918 Y0.318 E163.06382
G0 F9000 X67.352 Y0.318
G1 F1800 X107.915 Y40.882 E165.92579
G0 F9000 X107.915 Y41.447
G1 F1800 X66.786 Y0.318 E168.82767
G0 F9000 X66.221 Y0.318
G1 F1800 X107.915 Y42.013 E171.76944
G0 F9000 X107.915 Y42.579
G1 F1800 X65.655 Y0.318 E174.75115
G0 F9000 X65.089 Y0.318
G1 F1800 X107.915 Y43.144 E177.77275
G0 F9000 X107.915 Y43.710
G1 F1800 X64.524 Y0.318 E180.83426
G0 F9000 X63.958 Y0.318
G1 F1800 X107.915 Y44.276 E183.93569
G0 F9000 X107.915 Y44.841
G1 F1800 X63.392 Y0.318 E187.07703
G0 F9000 X62.827 Y0.318
G1 F1800 X107.915 Y45.407 E190.25827
G0 F9000 X107.915 Y45.973
G1 F1800 X62.261 Y0.318 E193.47944
G0 F9000 X61.695 Y0.318
G1 F1800 X107.915 Y46.538 E196.74051
G0 F9000 X107.915 Y47.104
G1 F1800 X61.130 Y0.318 E200.04148
G0 F9000 X60.564 Y0.318
G1 F1800 X107.915 Y47.670 E203.38239
G0 F9000 X107.915 Y48.235
G1 F1800 X59.998 Y0.318 E206.76319
G0 F9000 X59.433 Y0.318
G1 F1800 X107.915 Y48.801 E210.18389
G0 F9000 X107.915 Y49.367
G1 F1800 X58.867 Y0.318 E213.64453
G0 F9000 X58.301 Y0.318
