;Generated with Cura_SteamEngine 15.01
; Default start code
G28 ; Home extruder
G1 Z15 F100
M107 ; Turn off fan
G90 ; Absolute positioning
M82 ; Extruder in absolute mode
; Activate all used extruder
M104 T0 S220
G92 E0 ; Reset extruder position
; Wait for all used extruders to reach temperature
M109 T0 S220
;Layer count: 100
;LAYER:0
M107
G0 F9000 X8.391 Y1.516 Z0.300
;TYPE:SKIRT
G1 F1800 X8.851 Y0.601 E0.05109
G1 X9.687 Y-0.279 E0.11165
G1 X10.636 Y-0.785 E0.16531
G1 X11.712 Y-1.072 E0.22086
G1 X12.314 Y-1.086 E0.25091
G1 X12.563 Y-1.077 E0.26334
G1 X12.645 Y-1.081 E0.26743
G1 X13.354 Y-1.053 E0.30283
G1 X14.034 Y-1.019 E0.33680
G1 X14.078 Y-1.011 E0.33903
G1 X15.005 Y-1.081 E0.38541
G1 X15.085 Y-1.068 E0.38945
G1 X15.563 Y-1.104 E0.41337
G1 X16.417 Y-0.908 E0.45708
G1 X16.735 Y-0.908 E0.47295
G1 X17.752 Y-0.783 E0.52407
G1 X18.403 Y-0.784 E0.55655
G1 X19.313 Y-0.773 E0.60195
G1 X20.064 Y-0.774 E0.63942
G1 X20.942 Y-0.760 E0.68323
G1 X21.709 Y-0.761 E0.72149
G1 X22.536 Y-0.769 E0.76275
G1 X23.229 Y-0.770 E0.79733
G1 X24.082 Y-0.780 E0.83989
G1 X24.865 Y-0.781 E0.87895
G1 X25.712 Y-0.758 E0.92122
G1 X26.526 Y-0.759 E0.96184
G1 X27.347 Y-0.751 E1.00280
G1 X28.105 Y-0.752 E1.04061
G1 X28.920 Y-0.769 E1.08128
G1 X29.737 Y-0.770 E1.12204
G1 X30.597 Y-0.762 E1.16495
G1 X31.424 Y-0.763 E1.20621
G1 X32.234 Y-0.757 E1.24662
G1 X32.995 Y-0.758 E1.28459
G1 X33.807 Y-0.748 E1.32510
G1 X34.554 Y-0.749 E1.36237
G1 X35.383 Y-0.756 E1.40373
G1 X36.153 Y-0.756 E1.44215
G1 X36.968 Y-0.766 E1.48281
G1 X37.760 Y-0.767 E1.52232
G1 X38.620 Y-0.753 E1.56523
G1 X39.402 Y-0.754 E1.60425
G1 X40.209 Y-0.753 E1.64451
G1 X41.024 Y-0.754 E1.68517
G1 X41.891 Y-0.766 E1.72843
G1 X42.720 Y-0.767 E1.76979
G1 X43.549 Y-0.751 E1.81116
G1 X44.435 Y-0.752 E1.85536
G1 X45.273 Y-0.735 E1.89717
G1 X45.560 Y-0.735 E1.91149
G1 X46.679 Y-1.118 E1.97050
G1 X47.236 Y-1.071 E1.99839
G1 X47.796 Y-1.115 E2.02641
G1 X48.881 Y-0.728 E2.08388
G1 X49.109 Y-0.728 E2.09526
G1 X49.964 Y-0.765 E2.13795
G1 X50.587 Y-0.766 E2.16904
G1 X51.546 Y-0.918 E2.21748
G1 X52.084 Y-0.920 E2.24432
G1 X53.413 Y-1.044 E2.31091
G1 X53.677 Y-1.046 E2.32408
G1 X55.127 Y-1.042 E2.39642
G1 X55.284 Y-1.043 E2.40426
G1 X56.725 Y-1.016 E2.47616
G1 X58.394 Y-1.031 E2.55943
G1 X58.573 Y-1.032 E2.56836
G1 X60.059 Y-1.019 E2.64250
G1 X60.247 Y-1.020 E2.65188
G1 X61.688 Y-1.009 E2.72377
G1 X63.234 Y-1.019 E2.80091
G1 X63.439 Y-1.020 E2.81113
G1 X64.889 Y-1.016 E2.88347
G1 X66.479 Y-1.021 E2.96280
G1 X66.856 Y-1.023 E2.98161
G1 X67.986 Y-0.887 E3.03839
G1 X68.573 Y-1.121 E3.06992
G1 X69.442 Y-1.029 E3.11352
G1 X69.728 Y-1.081 E3.12802
G1 X70.282 Y-1.044 E3.15572
G1 X70.773 Y-1.097 E3.18036
G1 X70.986 Y-1.082 E3.19101
G1 X71.287 Y-1.074 E3.20603
G1 X71.540 Y-1.085 E3.21867
G1 X72.110 Y-1.050 E3.24716
G1 X73.109 Y-0.811 E3.29840
G1 X74.052 Y-0.318 E3.35149
G1 X74.934 Y0.570 E3.41393
G1 X75.424 Y1.523 E3.46740
G1 X75.651 Y2.535 E3.51914
G1 X75.684 Y3.252 E3.55495
G1 X75.680 Y3.352 E3.55994
G1 X75.669 Y4.001 E3.59233
G1 X75.655 Y4.395 E3.61199
G1 X75.607 Y4.743 E3.62952
G1 X75.669 Y5.463 E3.66557
G1 X75.624 Y5.688 E3.67702
G1 X75.702 Y6.665 E3.72592
G1 X75.648 Y6.939 E3.73985
G1 X75.631 Y8.079 E3.79673
G1 X75.634 Y8.569 E3.82118
G1 X75.329 Y9.805 E3.88469
G1 X75.330 Y10.262 E3.90749
G1 X75.366 Y11.148 E3.95173
G1 X75.367 Y11.787 E3.98361
G1 X75.530 Y12.826 E4.03608
G1 X75.532 Y13.356 E4.06253
G1 X75.658 Y14.673 E4.12853
G1 X75.662 Y14.884 E4.13906
G1 X75.655 Y16.394 E4.21439
G1 X75.656 Y16.458 E4.21759
G1 X75.634 Y17.990 E4.29403
G1 X75.635 Y18.095 E4.29927
G1 X75.624 Y19.608 E4.37475
G1 X75.625 Y19.743 E4.38149
G1 X75.605 Y21.174 E4.45289
G1 X75.608 Y21.712 E4.47973
G1 X75.322 Y22.889 E4.54016
G1 X75.323 Y23.445 E4.56790
G1 X75.345 Y24.329 E4.61201
G1 X75.346 Y25.213 E4.65612
G1 X75.353 Y26.090 E4.69987
G1 X75.354 Y26.912 E4.74088
G1 X75.366 Y27.814 E4.78589
G1 X75.367 Y28.681 E4.82914
G1 X75.377 Y29.575 E4.87375
G1 X75.378 Y30.448 E4.91730
G1 X75.348 Y31.313 E4.96048
G1 X75.349 Y32.068 E4.99815
G1 X75.347 Y32.891 E5.03921
G1 X75.348 Y33.690 E5.07907
G1 X75.347 Y34.519 E5.12043
G1 X75.348 Y35.396 E5.16418
G1 X75.369 Y36.244 E5.20650
G1 X75.370 Y37.060 E5.24721
G1 X75.363 Y37.918 E5.29002
G1 X75.364 Y38.637 E5.32589
G1 X75.372 Y39.504 E5.36915
G1 X75.373 Y40.314 E5.40956
G1 X75.352 Y41.165 E5.45203
G1 X75.353 Y41.997 E5.49354
G1 X75.343 Y42.848 E5.53600
G1 X75.344 Y43.662 E5.57661
G1 X75.349 Y44.516 E5.61921
G1 X75.352 Y47.183 E5.75227
G1 X75.339 Y48.086 E5.79733
G1 X75.340 Y48.972 E5.84153
G1 X75.309 Y49.878 E5.88676
G1 X75.309 Y50.231 E5.90437
G1 X75.718 Y51.415 E5.96686
G1 X75.661 Y52.040 E5.99817
G1 X75.681 Y52.858 E6.03900
G1 X75.650 Y53.418 E6.06698
G1 X75.650 Y53.603 E6.07621
G1 X75.493 Y54.968 E6.14476
G1 X75.494 Y55.525 E6.17255
G1 X75.356 Y56.540 E6.22365
G1 X75.357 Y57.232 E6.25817
G1 X75.352 Y58.120 E6.30248
G1 X75.353 Y58.953 E6.34404
G1 X75.353 Y59.816 E6.38709
G1 X75.354 Y60.639 E6.42815
G1 X75.338 Y61.443 E6.46827
G1 X75.339 Y62.398 E6.51592
G1 X75.301 Y63.263 E6.55911
G1 X75.301 Y63.582 E6.57503
G1 X75.712 Y64.848 E6.64143
G1 X75.660 Y65.723 E6.68516
G1 X75.401 Y66.885 E6.74456
G1 X75.401 Y66.969 E6.74875
G1 X75.612 Y68.256 E6.81382
G1 X75.614 Y68.732 E6.83756
G1 X75.603 Y70.180 E6.90981
G1 X75.610 Y71.787 E6.98998
G1 X75.615 Y73.461 E7.07350
G1 X75.616 Y73.677 E7.08427
G1 X75.605 Y75.147 E7.15762
G1 X75.608 Y76.759 E7.23804
G1 X75.613 Y78.394 E7.31961
G1 X75.631 Y80.020 E7.40074
G1 X75.632 Y80.177 E7.40857
G1 X75.631 Y81.618 E7.48046
G1 X75.632 Y81.781 E7.48859
G1 X75.599 Y83.196 E7.55921
G1 X75.601 Y83.713 E7.58500
G1 X75.362 Y84.881 E7.64448
G1 X75.363 Y85.458 E7.67327
G1 X75.355 Y86.400 E7.72026
G1 X75.356 Y86.852 E7.74281
G1 X75.577 Y87.981 E7.80021
G1 X75.608 Y89.946 E7.89826
G1 X75.611 Y91.581 E7.97983
G1 X75.612 Y91.824 E7.99195
G1 X75.589 Y93.249 E8.06305
G1 X75.603 Y94.853 E8.14308
G1 X75.614 Y96.481 E8.22430
G1 X75.621 Y98.145 E8.30732
G1 X75.630 Y99.748 E8.38730
G1 X75.633 Y101.316 E8.46552
G1 X75.634 Y101.504 E8.47490
G1 X75.603 Y102.922 E8.54566
G1 X75.603 Y103.413 E8.57016
G1 X75.373 Y104.563 E8.62867
G1 X75.374 Y105.059 E8.65342
G1 X75.373 Y106.040 E8.70236
G1 X75.374 Y106.534 E8.72700
G1 X75.598 Y107.684 E8.78546
G1 X75.600 Y108.075 E8.80496
G1 X75.686 Y109.204 E8.86145
G1 X75.677 Y109.481 E8.87528
G1 X75.716 Y110.001 E8.90130
G1 X75.318 Y111.208 E8.96470
G1 X75.318 Y111.443 E8.97643
G1 X75.423 Y112.420 E9.02545
G1 X75.423 Y112.851 E9.04695
G1 X75.723 Y113.931 E9.10287
G1 X75.693 Y114.176 E9.11519
G1 X75.695 Y114.182 E9.11550
G1 X75.597 Y115.322 E9.17259
G1 X75.665 Y115.694 E9.19146
G1 X75.638 Y116.107 E9.21210
G1 X75.692 Y116.506 E9.23219
G1 X75.680 Y116.745 E9.24413
G1 X75.674 Y117.070 E9.26035
G1 X75.687 Y117.420 E9.27782
G1 X75.603 Y118.149 E9.31443
G1 X75.382 Y118.938 E9.35531
G1 X74.919 Y119.841 E9.40594
G1 X74.058 Y120.697 E9.46651
G1 X73.092 Y121.209 E9.52105
G1 X72.056 Y121.444 E9.57405
G1 X71.348 Y121.472 E9.60940
G1 X70.626 Y121.462 E9.64543
G1 X69.690 Y121.450 E9.69213
G1 X69.176 Y121.516 E9.71798
G1 X68.070 Y121.199 E9.77538
G1 X67.580 Y121.199 E9.79983
G1 X66.620 Y121.058 E9.84824
G1 X65.944 Y121.059 E9.88196
G1 X65.067 Y121.139 E9.92590
G1 X64.081 Y121.140 E9.97509
G1 X63.186 Y121.146 E10.01974
G1 X62.304 Y121.147 E10.06375
G1 X61.423 Y121.149 E10.10770
G1 X60.598 Y121.150 E10.14886
G1 X59.682 Y121.163 E10.19456
G1 X58.794 Y121.164 E10.23887
G1 X57.935 Y121.148 E10.28173
G1 X57.100 Y121.149 E10.32339
G1 X56.233 Y121.149 E10.36664
G1 X55.364 Y121.150 E10.41000
G1 X54.499 Y121.150 E10.45315
G1 X53.656 Y121.151 E10.49521
G1 X52.794 Y121.148 E10.53822
G1 X51.990 Y121.149 E10.57833
G1 X51.128 Y121.148 E10.62133
G1 X50.257 Y121.149 E10.66479
G1 X49.391 Y121.147 E10.70799
G1 X48.571 Y121.148 E10.74890
G1 X47.712 Y121.166 E10.79177
G1 X46.915 Y121.167 E10.83153
G1 X46.041 Y121.170 E10.87513
G1 X45.286 Y121.171 E10.91280
G1 X44.419 Y121.164 E10.95606
G1 X43.657 Y121.165 E10.99407
G1 X42.825 Y121.146 E11.03559
G1 X42.056 Y121.147 E11.07396
G1 X41.235 Y121.142 E11.11492
G1 X40.480 Y121.143 E11.15259
G1 X39.655 Y121.149 E11.19375
G1 X38.924 Y121.150 E11.23022
G1 X38.068 Y121.159 E11.27293
G1 X37.272 Y121.160 E11.31264
G1 X36.428 Y121.151 E11.35475
G1 X35.623 Y121.152 E11.39491
G1 X34.806 Y121.135 E11.43568
G1 X33.988 Y121.136 E11.47649
G1 X33.156 Y121.145 E11.51800
G1 X32.367 Y121.146 E11.55736
G1 X31.535 Y121.140 E11.59887
G1 X30.710 Y121.141 E11.64003
G1 X29.877 Y121.132 E11.68159
G1 X29.108 Y121.133 E11.71996
G1 X28.247 Y121.145 E11.76292
G1 X27.379 Y121.146 E11.80622
G1 X26.492 Y121.155 E11.85048
G1 X25.658 Y121.156 E11.89209
G1 X24.801 Y121.159 E11.93484
G1 X23.987 Y121.160 E11.97545
G1 X23.138 Y121.150 E12.01781
G1 X22.417 Y121.151 E12.05378
G1 X21.571 Y121.148 E12.09599
G1 X20.745 Y121.149 E12.13720
G1 X19.891 Y121.151 E12.17981
G1 X19.093 Y121.152 E12.21962
G1 X18.203 Y121.164 E12.26403
G1 X17.527 Y121.165 E12.29775
G1 X16.538 Y121.243 E12.34725
G1 X16.213 Y121.243 E12.36346
G1 X15.247 Y121.503 E12.41337
G1 X14.799 Y121.451 E12.43587
G1 X14.669 Y121.482 E12.44254
G1 X13.786 Y121.390 E12.48683
G1 X13.557 Y121.432 E12.49844
G1 X12.766 Y121.468 E12.53795
G1 X12.594 Y121.463 E12.54653
G1 X12.499 Y121.466 E12.55128
G1 X11.798 Y121.444 E12.58627
G1 X10.667 Y121.211 E12.64388
G1 X9.802 Y120.720 E12.69350
G1 X8.888 Y119.864 E12.75597
G1 X8.386 Y118.866 E12.81171
G1 X8.148 Y117.845 E12.86401
G1 X8.123 Y117.089 E12.90175
G1 X8.145 Y116.462 E12.93305
G1 X8.143 Y116.143 E12.94897
G1 X8.186 Y115.796 E12.96641
G1 X8.112 Y114.490 E13.03167
G1 X8.292 Y114.122 E13.05211
G1 X8.408 Y113.434 E13.08692
G1 X8.407 Y112.907 E13.11321
G1 X8.433 Y111.960 E13.16047
G1 X8.432 Y111.120 E13.20238
G1 X8.449 Y110.241 E13.24624
G1 X8.448 Y109.390 E13.28870
G1 X8.452 Y108.504 E13.33290
G1 X8.451 Y107.674 E13.37431
G1 X8.432 Y106.837 E13.41608
G1 X8.431 Y105.999 E13.45789
G1 X8.427 Y105.096 E13.50294
G1 X8.426 Y104.209 E13.54719
G1 X8.444 Y103.348 E13.59016
G1 X8.443 Y102.517 E13.63162
G1 X8.441 Y101.657 E13.67452
G1 X8.440 Y100.884 E13.71309
G1 X8.435 Y100.060 E13.75420
G1 X8.434 Y99.349 E13.78967
G1 X8.432 Y98.491 E13.83248
G1 X8.431 Y97.720 E13.87094
G1 X8.440 Y96.814 E13.91614
G1 X8.439 Y96.022 E13.95566
G1 X8.440 Y95.148 E13.99926
G1 X8.439 Y94.253 E14.04391
G1 X8.451 Y93.344 E14.08927
G1 X8.450 Y92.520 E14.13038
G1 X8.462 Y91.648 E14.17388
G1 X8.459 Y89.063 E14.30285
G1 X8.455 Y88.218 E14.34501
G1 X8.454 Y87.348 E14.38841
G1 X8.458 Y86.500 E14.43072
G1 X8.457 Y85.713 E14.46998
G1 X8.457 Y84.874 E14.51184
G1 X8.456 Y84.061 E14.55240
G1 X8.444 Y83.206 E14.59506
G1 X8.443 Y82.347 E14.63792
G1 X8.446 Y81.479 E14.68122
G1 X8.445 Y80.754 E14.71739
G1 X8.433 Y79.890 E14.76050
G1 X8.433 Y79.111 E14.79937
G1 X8.431 Y78.289 E14.84038
G1 X8.430 Y77.534 E14.87805
G1 X8.431 Y76.685 E14.92040
G1 X8.430 Y75.978 E14.95567
G1 X8.440 Y75.096 E14.99968
G1 X8.439 Y74.233 E15.04274
G1 X8.451 Y73.356 E15.08649
G1 X8.450 Y72.613 E15.12356
G1 X8.445 Y71.805 E15.16387
G1 X8.444 Y71.015 E15.20329
G1 X8.445 Y70.156 E15.24614
G1 X8.444 Y69.329 E15.28740
G1 X8.442 Y68.521 E15.32771
G1 X8.441 Y67.803 E15.36353
G1 X8.434 Y67.005 E15.40335
G1 X8.433 Y66.224 E15.44231
G1 X8.437 Y65.404 E15.48322
G1 X8.434 Y63.148 E15.59578
G1 X8.436 Y62.288 E15.63868
G1 X8.435 Y61.497 E15.67814
G1 X8.456 Y60.639 E15.72096
G1 X8.455 Y59.765 E15.76457
G1 X8.461 Y58.916 E15.80693
G1 X8.458 Y56.459 E15.92951
G1 X8.451 Y55.624 E15.97117
G1 X8.450 Y54.765 E16.01402
G1 X8.439 Y53.922 E16.05608
G1 X8.438 Y53.121 E16.09604
G1 X8.445 Y52.279 E16.13805
G1 X8.444 Y51.572 E16.17333
G1 X8.450 Y50.746 E16.21454
G1 X8.449 Y49.930 E16.25525
G1 X8.443 Y49.080 E16.29765
G1 X8.442 Y48.268 E16.33816
G1 X8.457 Y47.451 E16.37893
G1 X8.456 Y46.569 E16.42294
G1 X8.466 Y45.753 E16.46365
G1 X8.465 Y45.033 E16.49957
G1 X8.435 Y44.198 E16.54125
G1 X8.434 Y43.378 E16.58216
G1 X8.437 Y42.518 E16.62507
G1 X8.436 Y41.725 E16.66463
G1 X8.458 Y40.906 E16.70551
G1 X8.457 Y40.137 E16.74387
G1 X8.445 Y39.271 E16.78708
G1 X8.444 Y38.437 E16.82869
G1 X8.462 Y37.611 E16.86991
G1 X8.461 Y36.819 E16.90942
G1 X8.463 Y36.008 E16.94988
G1 X8.462 Y35.148 E16.99279
G1 X8.457 Y34.340 E17.03310
G1 X8.456 Y33.469 E17.07656
G1 X8.457 Y32.629 E17.11846
G1 X8.456 Y31.831 E17.15828
G1 X8.457 Y31.018 E17.19884
G1 X8.456 Y30.164 E17.24144
G1 X8.456 Y29.328 E17.28315
G1 X8.455 Y28.532 E17.32286
G1 X8.444 Y27.698 E17.36448
G1 X8.443 Y26.827 E17.40793
G1 X8.453 Y25.974 E17.45049
G1 X8.452 Y25.223 E17.48796
G1 X8.435 Y24.410 E17.52853
G1 X8.434 Y23.592 E17.56934
G1 X8.449 Y22.782 E17.60976
G1 X8.448 Y21.972 E17.65017
G1 X8.459 Y21.142 E17.69158
G1 X8.458 Y20.376 E17.72980
G1 X8.461 Y19.542 E17.77140
G1 X8.460 Y18.729 E17.81197
G1 X8.438 Y17.871 E17.85478
G1 X8.437 Y16.991 E17.89869
G1 X8.448 Y16.102 E17.94304
G1 X8.447 Y15.340 E17.98106
G1 X8.458 Y14.492 E18.02337
G1 X8.457 Y13.676 E18.06408
G1 X8.457 Y12.838 E18.10589
G1 X8.456 Y12.040 E18.14570
G1 X8.445 Y11.210 E18.18711
G1 X8.444 Y10.412 E18.22693
G1 X8.434 Y9.566 E18.26914
G1 X8.433 Y8.935 E18.30062
G1 X8.270 Y7.911 E18.35235
G1 X8.269 Y7.527 E18.37151
G1 X8.118 Y6.573 E18.41969
G1 X8.150 Y5.944 E18.45112
G1 X8.146 Y5.836 E18.45651
G1 X8.199 Y5.083 E18.49417
G1 X8.130 Y4.676 E18.51476
G1 X8.165 Y4.355 E18.53087
G1 X8.161 Y4.337 E18.53179
G1 X8.122 Y3.313 E18.58292
G1 X8.125 Y3.259 E18.58562
G1 X8.123 Y3.195 E18.58881
G1 X8.156 Y2.515 E18.62277
G1 X8.391 Y1.516 E18.67398
G1 F2400 E14.67398
G0 F9000 X11.930 Y3.305
;TYPE:WALL-INNER
G1 F2400 E18.67398
G1 F1800 X11.927 Y3.209 E18.67877
G1 X11.934 Y3.046 E18.68691
G1 X11.994 Y2.810 E18.69906
G1 X12.019 Y2.784 E18.70086
G1 X12.035 Y2.775 E18.70177
G1 X12.256 Y2.716 E18.71318
G1 X12.289 Y2.715 E18.71483
G1 X12.577 Y2.725 E18.72921
G1 X12.637 Y2.722 E18.73220
G1 X13.189 Y2.744 E18.75977
G1 X13.601 Y2.764 E18.78034
G1 X13.884 Y2.814 E18.79468
G1 X14.851 Y2.741 E18.84306
G1 X14.929 Y2.753 E18.84700
G1 X15.270 Y2.728 E18.86406
G1 X15.988 Y2.892 E18.90080
G1 X16.500 Y2.892 E18.92635
G1 X17.526 Y3.017 E18.97791
G1 X18.379 Y3.016 E19.02047
G1 X19.275 Y3.027 E19.06517
G1 X20.031 Y3.026 E19.10289
G1 X20.888 Y3.040 E19.14565
G1 X21.743 Y3.039 E19.18831
G1 X22.560 Y3.031 E19.22907
G1 X23.271 Y3.030 E19.26454
G1 X24.110 Y3.020 E19.30640
G1 X24.808 Y3.019 E19.34123
G1 X25.655 Y3.042 E19.38350
G1 X26.507 Y3.041 E19.42601
G1 X27.316 Y3.049 E19.46637
G1 X28.130 Y3.048 E19.50698
G1 X28.967 Y3.031 E19.54875
G1 X29.719 Y3.030 E19.58626
G1 X30.569 Y3.038 E19.62867
G1 X31.411 Y3.037 E19.67068
G1 X32.212 Y3.043 E19.71064
G1 X32.970 Y3.042 E19.74846
G1 X33.768 Y3.052 E19.78828
G1 X34.584 Y3.051 E19.82899
G1 X35.402 Y3.044 E19.86980
G1 X36.197 Y3.044 E19.90946
G1 X36.998 Y3.034 E19.94943
G1 X37.726 Y3.033 E19.98575
G1 X38.565 Y3.047 E20.02761
G1 X39.402 Y3.046 E20.06937
G1 X40.209 Y3.047 E20.10963
G1 X41.074 Y3.046 E20.15278
G1 X41.924 Y3.034 E20.19519
G1 X42.682 Y3.033 E20.23301
G1 X43.536 Y3.049 E20.27562
G1 X44.394 Y3.048 E20.31843
G1 X45.253 Y3.065 E20.36129
G1 X46.195 Y3.064 E20.40829
G1 X47.156 Y2.736 E20.45895
G1 X47.221 Y2.741 E20.46220
G1 X47.283 Y2.736 E20.46531
G1 X48.224 Y3.072 E20.51516
G1 X49.191 Y3.072 E20.56340
G1 X50.038 Y3.035 E20.60570
G1 X50.887 Y3.034 E20.64805
G1 X51.853 Y2.881 E20.69685
G1 X52.265 Y2.880 E20.71740
G1 X53.602 Y2.755 E20.78440
G1 X53.690 Y2.754 E20.78879
G1 X55.144 Y2.758 E20.86133
G1 X55.261 Y2.757 E20.86717
G1 X56.728 Y2.784 E20.94037
G1 X58.424 Y2.769 E21.02499
G1 X58.569 Y2.768 E21.03222
G1 X60.045 Y2.781 E21.10586
G1 X60.241 Y2.780 E21.11564
G1 X61.684 Y2.791 E21.18763
G1 X63.445 Y2.780 E21.27549
